src/icons/outline/media/play.svg

<svg width="24" height="24" viewBox="0 0 24 24" fill="none" xmlns="http://www.w3.org/2000/svg">
<g clip-path="url(#clip0_4690_329)">
<path d="M5.77778 21C5.65333 21 5.52889 20.9691 5.41481 20.9074C5.16593 20.7737 5 20.5166 5 20.2286V3.77099C5 3.48299 5.15556 3.22584 5.41481 3.09212C5.6637 2.9584 5.97481 2.96869 6.21333 3.13326L18.6578 11.362C18.8756 11.506 19 11.7426 19 11.9998C19 12.2569 18.8652 12.5038 18.6578 12.6375L6.21333 20.8663C6.07852 20.9486 5.93333 21 5.77778 21ZM6.55556 5.21103V18.7885L16.8222 11.9998L6.55556 5.21103Z" fill="#3C3B44"/>
</g>
<defs>
<clipPath id="clip0_4690_329">
<rect width="24" height="24" fill="white"/>
</clipPath>
</defs>
</svg>

<svg xmlns="http://www.w3.org/2000/svg" width="24" height="24" fill="none" viewBox="0 0 24 24"><g clip-path="url(#a)"><path fill="currentColor" d="M5.778 21a.76.76 0 0 1-.363-.093A.78.78 0 0 1 5 20.23V3.77c0-.288.156-.545.415-.679a.77.77 0 0 1 .798.041l12.445 8.229c.218.144.342.38.342.638a.77.77 0 0 1-.342.637l-12.445 8.23a.83.83 0 0 1-.435.133M6.556 5.21v13.577L16.822 12z"/></g><defs><clipPath id="a"><path fill="currentColor" d="M0 0h24v24H0z"/></clipPath></defs></svg>
